dist/svg/query.svg

<svg width="16" height="16" viewBox="0 0 16 16" fill="rgb(34, 34, 34)" xmlns="http://www.w3.org/2000/svg"><title>query</title><path d="M4.035 8.02301H9.02V9.02001H4.035V8.02301ZM4.035 7.02601H9.02V6.02901H4.035V7.02601ZM16 14.598L14.598 16L10.351 11.753C9.839 12.129 9.249 12.443 8.616 12.667L8.568 12.682C7.962 12.889 7.264 13.009 6.538 13.009C6.529 13.009 6.52 13.009 6.51 13.009C6.497 13.009 6.482 13.009 6.466 13.009C5.564 13.009 4.707 12.82 3.931 12.479L3.971 12.495C3.168 12.146 2.481 11.679 1.898 11.107L1.899 11.108C1.328 10.525 0.861001 9.83901 0.529001 9.08001L0.512001 9.03601C0.187001 8.30301 -0.0019989 7.44901 -0.0019989 6.55001C-0.0019989 6.53701 -0.0019989 6.52401 -0.0019989 6.51101V6.51301C-0.0019989 6.50001 -0.0019989 6.48401 -0.0019989 6.46801C-0.0019989 5.56601 0.187001 4.70901 0.528001 3.93301L0.512001 3.97301C1.189 2.41101 2.409 1.19101 3.928 0.531007L3.97 0.515007C4.705 0.190007 5.563 0.00100708 6.464 0.00100708C6.48 0.00100708 6.496 0.00100708 6.511 0.00100708H6.509C6.52 0.00100708 6.533 0.00100708 6.546 0.00100708C7.445 0.00100708 8.3 0.190007 9.073 0.531007L9.033 0.515007C9.833 0.862007 10.516 1.33501 11.089 1.91601L11.09 1.91701C11.672 2.49101 12.145 3.17301 12.476 3.93201L12.492 3.97401C12.817 4.70901 13.006 5.56701 13.006 6.46901C13.006 6.48501 13.006 6.50101 13.006 6.51601V6.51401C13.006 6.52101 13.006 6.53001 13.006 6.53901C13.006 7.26701 12.88 7.96501 12.65 8.61401L12.663 8.57101C12.437 9.24901 12.125 9.83801 11.732 10.363L11.744 10.347L16 14.598ZM11.513 6.52801C11.513 6.52101 11.513 6.51201 11.513 6.50301C11.513 5.80901 11.37 5.14801 11.111 4.54801L11.123 4.58001C10.858 3.96701 10.495 3.44501 10.049 3.00701L10.048 3.00601C9.61 2.55901 9.087 2.19601 8.506 1.94301L8.475 1.93101C7.9 1.68501 7.23 1.54201 6.528 1.54201C5.826 1.54201 5.156 1.68501 4.547 1.94401L4.58 1.93101C3.963 2.19901 3.436 2.56101 2.991 3.00601C2.552 3.44601 2.195 3.96801 1.944 4.54701L1.932 4.57901C1.686 5.15401 1.543 5.82401 1.543 6.52601C1.543 7.22801 1.686 7.89801 1.945 8.50701L1.932 8.47401C2.198 9.09001 2.555 9.61601 2.992 10.064L2.991 10.063C3.438 10.499 3.964 10.856 4.547 11.109L4.581 11.122C5.156 11.368 5.826 11.512 6.528 11.512C7.23 11.512 7.9 11.369 8.509 11.11L8.476 11.123C9.087 10.86 9.609 10.502 10.05 10.064C10.495 9.61901 10.857 9.09201 11.112 8.50701L11.125 8.47401C11.371 7.90701 11.515 7.24601 11.515 6.55201C11.515 6.54301 11.515 6.53401 11.515 6.52601L11.513 6.52801ZM4.035 5.03201H9.02V4.03501H4.035V5.03201Z" fill="rgb(34, 34, 34)" fill-opacity="1.00"/></svg>

<!-- Generated by Trend Micro Style Portal -->
<svg version="1.1" xmlns="http://www.w3.org/2000/svg" width="16" height="16" viewBox="0 0 16 16">
  <title>query</title>
  <path fill="rgb(34,34,34)" d="M4.035 8.023h4.985v0.997h-4.985zM4.035 7.026h4.985v-0.997h-4.985zM16 14.598l-1.402 1.402-4.247-4.247c-0.512 0.376-1.102 0.69-1.735 0.914l-0.048 0.015c-0.606 0.207-1.304 0.327-2.030 0.327-0.009 0-0.018-0-0.028-0h0.001c-0.013 0-0.029 0-0.045 0-0.902 0-1.759-0.189-2.535-0.53l0.040 0.016c-0.803-0.349-1.49-0.816-2.073-1.388l0.001 0.001c-0.571-0.583-1.038-1.269-1.37-2.028l-0.017-0.044c-0.325-0.733-0.514-1.587-0.514-2.486 0-0.013 0-0.026 0-0.039l-0 0.002c-0-0.013-0-0.029-0-0.045 0-0.902 0.189-1.759 0.53-2.535l-0.016 0.040c0.677-1.562 1.897-2.782 3.416-3.442l0.042-0.016c0.735-0.325 1.593-0.514 2.494-0.514 0.016 0 0.032 0 0.047 0l-0.002-0c0.011-0 0.024-0 0.037-0 0.899 0 1.754 0.189 2.527 0.53l-0.040-0.016c0.8 0.347 1.483 0.82 2.056 1.401l0.001 0.001c0.582 0.574 1.055 1.256 1.386 2.015l0.016 0.042c0.325 0.735 0.514 1.593 0.514 2.495 0 0.016-0 0.032-0 0.047l0-0.002c0 0.007 0 0.016 0 0.025 0 0.728-0.126 1.426-0.356 2.075l0.013-0.043c-0.226 0.678-0.538 1.267-0.931 1.792l0.012-0.016zM11.513 6.528c0-0.007 0-0.016 0-0.025 0-0.694-0.143-1.355-0.402-1.955l0.012 0.032c-0.265-0.613-0.628-1.135-1.074-1.573l-0.001-0.001c-0.438-0.447-0.961-0.81-1.542-1.063l-0.031-0.012c-0.575-0.246-1.245-0.389-1.947-0.389s-1.372 0.143-1.981 0.402l0.033-0.013c-0.617 0.268-1.144 0.63-1.589 1.075l-0 0c-0.439 0.44-0.796 0.962-1.047 1.541l-0.012 0.032c-0.246 0.575-0.389 1.245-0.389 1.947s0.143 1.372 0.402 1.981l-0.013-0.033c0.266 0.616 0.623 1.142 1.060 1.59l-0.001-0.001c0.447 0.436 0.973 0.793 1.556 1.046l0.034 0.013c0.575 0.246 1.245 0.39 1.947 0.39s1.372-0.143 1.981-0.402l-0.033 0.013c0.611-0.263 1.133-0.621 1.574-1.059l-0 0c0.445-0.445 0.807-0.972 1.062-1.557l0.013-0.033c0.246-0.567 0.39-1.228 0.39-1.922 0-0.009-0-0.018-0-0.026v0.001zM4.035 5.032h4.985v-0.997h-4.985z"></path>
</svg>
